X: 100006
M: C|
L: 1/8
K: D
uB |\
uA |\
d2(f>d) [BG]>e d/c/B/A/ | d<d(f>d) [B2G2]B>c |\
d2(f>d) [BG]>e d/c/B/A/ | (d>B)(A>F) E2(E>c) |
d2(f>d) [BG]>e d/c/B/A/ | (d>e)(f>d) B2(B>g) |\
(3fed (3cde (3dcB (3ABc | (3dcB (3AGF "^Segue Reel."[E3A,3] "_D.C." |]


